X:778
T:Reel 778
M:4/4
K:Amin
L:1/8
G2DG FGDF|EGFG EB,A,B,DC| (3E^FG DB, GB,AB|GEDB, B,A,A,D:|G2 (3GFE FEDE|GEDB, B,A,DF|GGGG FEDEFG|AGDF EA,A,2|G2GE FGDE|FEDB, B,B,D2B,D|A,E (3^FGF GABd|AGFD EA,A,2|
